X: 540
T: New wild Morris
M:12/8
L:1/8
S: 8: MCJLSH3 http://www.cpartington.plus.com/links/Walsh.abc
Z: Pete Stewart 2004
B: Walsh "Third Book of the most Celebrated jiggs, Lancashire hornpipes, ..."
K:D
d | def Bcd cde ABc | dcB AGF Edcd2D | def Bcd cde ABc | dcB EA^G A3A2 || a | agf fed gfe edc |
fed dcB cde ^A2f | gfe dcB(B3B2)c | dDd dcB efe edc | fFf fed cde Aag | fed Adc (d3d2) ||

%%sep 1 1 500
%%sep 1 1 500
